packages/core/src/svgs/tokens/mono/BZRX.svg

<svg width="24" height="24" viewBox="0 0 24 24" fill="none" xmlns="http://www.w3.org/2000/svg">
<path d="M2 5.99999C2 4.93913 2.42143 3.92171 3.17156 3.17158C3.92171 2.42143 4.93912 2 5.99998 2H8.24997V6.37499H10.125V2H17.9999C19.0607 2 20.0782 2.42143 20.8284 3.17158C21.5785 3.92171 22 4.93913 22 5.99999V18C22 19.0608 21.5785 20.0783 20.8284 20.8283C20.0782 21.5785 19.0607 21.9999 17.9999 21.9999H5.99998C4.93912 21.9999 3.92171 21.5785 3.17156 20.8283C2.42143 20.0783 2 19.0608 2 18V10.125H13.3762C13.7775 10.125 13.8749 10.3875 13.8749 10.7887V13.25C13.8749 13.6519 13.6512 13.875 13.25 13.875H10.7262C10.3249 13.875 10.125 13.5594 10.125 13.1575V11.375H8.24997V13.4444C8.24997 14.9518 9.22183 15.75 10.7262 15.75H13.3762C14.8812 15.75 15.7499 14.9518 15.7499 13.4444V10.7887C15.7499 9.28184 14.8806 8.24999 13.3762 8.24999H2V5.99999Z" fill="white"/>
</svg>

<svg xmlns="http://www.w3.org/2000/svg" width="24" height="24" fill="none" viewBox="0 0 24 24">
    <path fill="#fff" d="M2 6a4 4 0 0 1 4-4h2.25v4.375h1.875V2H18a4 4 0 0 1 4 4v12a4 4 0 0 1-4 4H6a4 4 0 0 1-4-4v-7.875h11.376c.402 0 .499.262.499.664v2.461c0 .402-.224.625-.625.625h-2.524c-.401 0-.601-.316-.601-.717v-1.783H8.25v2.07c0 1.507.972 2.305 2.476 2.305h2.65c1.505 0 2.374-.798 2.374-2.306V10.79c0-1.507-.87-2.539-2.374-2.539H2z"/>
</svg>
